Yosa-Max/mimetypes/scalable/application-archive-zip.svg

<?xml version="1.0" encoding="UTF-8"?>
<svg id="svg8" width="64" height="64" version="1.1" viewBox="0 0 16.933333 16.933334" xmlns="http://www.w3.org/2000/svg" xmlns:xlink="http://www.w3.org/1999/xlink">
 <defs id="defs2">
  <linearGradient id="linearGradient855" x1="8.619092" x2="8.619092" y1="281.36874" y2="283.99829" gradientTransform="translate(-.24418985 .04844175)" gradientUnits="userSpaceOnUse">
   <stop id="stop849" style="stop-color:#2bb433" offset="0"/>
   <stop id="stop851" style="stop-color:#35d14c" offset="1"/>
  </linearGradient>
  <linearGradient id="linearGradient839" x1="8.7651777" x2="8.7651777" y1="281.36874" y2="283.93988" gradientTransform="matrix(1 0 0 .99990301 -.24443025 .07573029)" gradientUnits="userSpaceOnUse">
   <stop id="stop833" style="stop-color:#313131" offset="0"/>
   <stop id="stop835" style="stop-color:#5f5f5f" offset="1"/>
  </linearGradient>
  <linearGradient id="linearGradient881" x1="32.052734" x2="32.052734" y1="40.90625" y2="15.182004" gradientUnits="userSpaceOnUse">
   <stop id="stop875" style="stop-color:#4c4c4c" offset="0"/>
   <stop id="stop877" style="stop-color:#7d7d7d" offset="1"/>
  </linearGradient>
  <linearGradient id="linearGradient846" x1="8.2415819" x2="8.2415819" y1="295.47632" y2="284.46448" gradientUnits="userSpaceOnUse">
   <stop id="stop840" style="stop-color:#3cd551" offset="0"/>
   <stop id="stop842" style="stop-color:#58ee6e" offset="1"/>
  </linearGradient>
 </defs>
 <g id="layer1" transform="translate(0,-280.06665)">
  <path id="path822" d="m1.3229167 284.03554 2.6458333-2.64584h8.995834l2.645833 2.64584z" style="fill:url(#linearGradient855);paint-order:stroke fill markers"/>
  <path id="rect812" d="m15.610417 284.03554h-14.2875v11.64166h14.2875z" style="fill:url(#linearGradient846);paint-order:stroke fill markers"/>
  <path id="path840" d="m6.8791661 284.03553 0.7935103-2.64583h1.5874997l0.7939919 2.64583z" style="fill:url(#linearGradient839);paint-order:stroke fill markers"/>
  <path id="rect823" transform="matrix(.26458334 0 0 .26458334 0 280.06665)" d="m26 15.001953v13.398438h0.052734v12.505859l1.822266-1.988281 1.392578 2.083984 1.5-3.408203 1.285156 3.3125 1.5-2.177734 1.714844 2.177734 1.392578-2.460938 1.28711 2.460938v-12.505859h0.052734v-13.398438h-12z" style="fill:url(#linearGradient881);paint-order:stroke fill markers"/>
 </g>
</svg>

<?xml version="1.0" encoding="UTF-8" standalone="no"?>
<!-- Created with Inkscape (http://www.inkscape.org/) -->

<svg
   xmlns:dc="http://purl.org/dc/elements/1.1/"
   xmlns:cc="http://creativecommons.org/ns#"
   xmlns:rdf="http://www.w3.org/1999/02/22-rdf-syntax-ns#"
   xmlns:svg="http://www.w3.org/2000/svg"
   xmlns="http://www.w3.org/2000/svg"
   xmlns:xlink="http://www.w3.org/1999/xlink"
   xmlns:sodipodi="http://sodipodi.sourceforge.net/DTD/sodipodi-0.dtd"
   xmlns:inkscape="http://www.inkscape.org/namespaces/inkscape"
   width="64"
   height="64"
   viewBox="0 0 16.933333 16.933334"
   version="1.1"
   id="svg8"
   inkscape:version="0.92.2 2405546, 2018-03-11"
   sodipodi:docname="application-archive-zip.svg">
  <defs
     id="defs2">
    <linearGradient
       inkscape:collect="always"
       id="linearGradient844">
      <stop
         style="stop-color:#3cd551;stop-opacity:1"
         offset="0"
         id="stop840" />
      <stop
         style="stop-color:#58ee6e;stop-opacity:1"
         offset="1"
         id="stop842" />
    </linearGradient>
    <linearGradient
       inkscape:collect="always"
       id="linearGradient879">
      <stop
         style="stop-color:#4c4c4c;stop-opacity:1"
         offset="0"
         id="stop875" />
      <stop
         style="stop-color:#7d7d7d;stop-opacity:1"
         offset="1"
         id="stop877" />
    </linearGradient>
    <linearGradient
       id="a"
       gradientTransform="matrix(1.0749904,0,0,1.0292896,56.688954,-0.015285)"
       gradientUnits="userSpaceOnUse"
       x1="-74.929466"
       x2="-75.259552"
       y1="52.199436"
       y2="2.3564889">
      <stop
         offset="0"
         stop-color="#ecc952"
         id="stop2"
         style="stop-color:#3bd450;stop-opacity:1" />
      <stop
         offset="1"
         stop-color="#f5d66d"
         id="stop4"
         style="stop-color:#59ef6f;stop-opacity:1" />
    </linearGradient>
    <linearGradient
       gradientTransform="translate(-0.24418985,0.04844175)"
       inkscape:collect="always"
       xlink:href="#linearGradient853"
       id="linearGradient855"
       x1="8.619092"
       y1="281.36874"
       x2="8.619092"
       y2="283.99829"
       gradientUnits="userSpaceOnUse" />
    <linearGradient
       inkscape:collect="always"
       id="linearGradient853">
      <stop
         style="stop-color:#2bb433;stop-opacity:1"
         offset="0"
         id="stop849" />
      <stop
         style="stop-color:#35d14c;stop-opacity:1"
         offset="1"
         id="stop851" />
    </linearGradient>
    <linearGradient
       gradientTransform="matrix(1,0,0,0.99990301,-0.24443025,0.07573029)"
       inkscape:collect="always"
       xlink:href="#linearGradient837"
       id="linearGradient839"
       x1="8.7651777"
       y1="281.36874"
       x2="8.7651777"
       y2="283.93988"
       gradientUnits="userSpaceOnUse" />
    <linearGradient
       inkscape:collect="always"
       id="linearGradient837">
      <stop
         style="stop-color:#313131;stop-opacity:1"
         offset="0"
         id="stop833" />
      <stop
         style="stop-color:#5f5f5f;stop-opacity:1"
         offset="1"
         id="stop835" />
    </linearGradient>
    <linearGradient
       inkscape:collect="always"
       xlink:href="#linearGradient879"
       id="linearGradient881"
       x1="32.052734"
       y1="40.90625"
       x2="32.052734"
       y2="15.182004"
       gradientUnits="userSpaceOnUse" />
    <linearGradient
       y2="2.3564889"
       y1="52.199436"
       x2="-75.259552"
       x1="-74.929466"
       gradientUnits="userSpaceOnUse"
       gradientTransform="matrix(1.0749904,0,0,1.0292896,56.688954,-0.015285)"
       id="a-7">
      <stop
         id="stop2-5"
         stop-color="#ecc952"
         offset="0" />
      <stop
         id="stop4-3"
         stop-color="#f5d66d"
         offset="1" />
    </linearGradient>
    <linearGradient
       inkscape:collect="always"
       xlink:href="#linearGradient844"
       id="linearGradient846"
       x1="8.2415819"
       y1="295.47632"
       x2="8.2415819"
       y2="284.46448"
       gradientUnits="userSpaceOnUse" />
  </defs>
  <sodipodi:namedview
     id="base"
     pagecolor="#ffffff"
     bordercolor="#666666"
     borderopacity="1.0"
     inkscape:pageopacity="0.0"
     inkscape:pageshadow="2"
     inkscape:zoom="3.8203125"
     inkscape:cx="-6.1567785"
     inkscape:cy="46.819744"
     inkscape:document-units="px"
     inkscape:current-layer="layer1"
     showgrid="false"
     units="px"
     inkscape:showpageshadow="false"
     inkscape:window-width="1366"
     inkscape:window-height="701"
     inkscape:window-x="0"
     inkscape:window-y="0"
     inkscape:window-maximized="1" />
  <metadata
     id="metadata5">
    <rdf:RDF>
      <cc:Work
         rdf:about="">
        <dc:format>image/svg+xml</dc:format>
        <dc:type
           rdf:resource="http://purl.org/dc/dcmitype/StillImage" />
        <dc:title />
      </cc:Work>
    </rdf:RDF>
  </metadata>
  <g
     inkscape:label="Layer 1"
     inkscape:groupmode="layer"
     id="layer1"
     transform="translate(0,-280.06665)">
    <path
       style="opacity:1;vector-effect:none;fill:url(#linearGradient855);fill-opacity:1;stroke:none;stroke-width:0.79375005;stroke-linecap:butt;stroke-linejoin:miter;stroke-miterlimit:4;stroke-dasharray:none;stroke-dashoffset:0;stroke-opacity:0.8539823;paint-order:stroke fill markers"
       d="M 1.3229167,284.03554 3.96875,281.3897 h 8.995834 l 2.645833,2.64584 z"
       id="path822"
       inkscape:connector-curvature="0" />
    <path
       style="opacity:1;vector-effect:none;fill:url(#linearGradient846);fill-opacity:1;stroke:none;stroke-width:0.79375011;stroke-linecap:butt;stroke-linejoin:miter;stroke-miterlimit:4;stroke-dasharray:none;stroke-dashoffset:0;stroke-opacity:0.8539823;paint-order:stroke fill markers"
       d="M 15.610417,284.03554 H 1.3229167 V 295.6772 H 15.610417 Z"
       id="rect812"
       inkscape:connector-curvature="0" />
    <path
       style="opacity:1;vector-effect:none;fill:url(#linearGradient839);fill-opacity:1;stroke:none;stroke-width:0.79375005;stroke-linecap:butt;stroke-linejoin:miter;stroke-miterlimit:4;stroke-dasharray:none;stroke-dashoffset:0;stroke-opacity:0.8539823;paint-order:stroke fill markers"
       d="m 6.8791661,284.03553 0.7935103,-2.64583 h 1.5874997 l 0.7939919,2.64583 z"
       id="path840"
       inkscape:connector-curvature="0" />
    <path
       style="opacity:1;vector-effect:none;fill:url(#linearGradient881);fill-opacity:1;stroke:none;stroke-width:3.00000024;stroke-linecap:butt;stroke-linejoin:miter;stroke-miterlimit:4;stroke-dasharray:none;stroke-dashoffset:0;stroke-opacity:0.8539823;paint-order:stroke fill markers"
       d="M 26 15.001953 L 26 28.400391 L 26.052734 28.400391 L 26.052734 40.90625 L 27.875 38.917969 L 29.267578 41.001953 L 30.767578 37.59375 L 32.052734 40.90625 L 33.552734 38.728516 L 35.267578 40.90625 L 36.660156 38.445312 L 37.947266 40.90625 L 37.947266 28.400391 L 38 28.400391 L 38 15.001953 L 26 15.001953 z "
       transform="matrix(0.26458334,0,0,0.26458334,0,280.06665)"
       id="rect823" />
  </g>
</svg>
